assets/img/braze_icons/microphone-off-01.svg

<svg fill="none" height="24" viewBox="0 0 24 24" width="24" xmlns="http://www.w3.org/2000/svg"><g fill="#801ed7"><path clip-rule="evenodd" d="m2.70711 1.29289c-.39053-.390521-1.02369-.390521-1.41422 0-.390521.39053-.390521 1.02369 0 1.41422l6.70711 6.7071v2.58579c0 2.2092 1.79086 4 4 4 .7414 0 1.4364-.2023 2.0318-.5539l1.4447 1.4446c-.9808.6985-2.1807 1.1093-3.4765 1.1093-3.31371 0-6-2.6863-6-6v-2c0-.55229-.44772-1-1-1s-1 .44771-1 1v2c0 4.0796 3.05369 7.446 7 7.9381v1.0619h-3c-.55228 0-1 .4477-1 1s.44772 1 1 1h8c.5523 0 1-.4477 1-1s-.4477-1-1-1h-3v-1.0619c1.4607-.1821 2.7991-.7581 3.9056-1.6182l4.3873 4.3872c.3905.3905 1.0237.3905 1.4142 0s.3905-1.0237 0-1.4142l-4.3872-4.3873c1.053-1.3546 1.6801-3.0569 1.6801-4.9056v-2c0-.55229-.4477-1-1-1s-1 .44771-1 1v2c0 1.2958-.4108 2.4957-1.1093 3.4765l-4.736-4.7362c-3.14905-3.14931-6.2981-6.29858-9.44759-9.44741z" fill-rule="evenodd"/><path d="m16 11.7574v-6.7574c0-2.20914-1.7909-4-4-4-1.8306 0-3.37402 1.22974-3.84917 2.90819z"/></g></svg>

<svg width="24" height="24" viewBox="0 0 24 24" fill="none" xmlns="http://www.w3.org/2000/svg">
<path fill-rule="evenodd" clip-rule="evenodd" d="M2.70711 1.29289C2.31658 0.902369 1.68342 0.902369 1.29289 1.29289C0.902369 1.68342 0.902369 2.31658 1.29289 2.70711L8 9.41421V12C8 14.2092 9.79086 16 12 16C12.7414 16 13.4364 15.7977 14.0318 15.4461L15.4765 16.8907C14.4957 17.5892 13.2958 18 12 18C8.68629 18 6 15.3137 6 12V10C6 9.44771 5.55228 9 5 9C4.44772 9 4 9.44771 4 10V12C4 16.0796 7.05369 19.446 11 19.9381V21H8C7.44772 21 7 21.4477 7 22C7 22.5523 7.44772 23 8 23H16C16.5523 23 17 22.5523 17 22C17 21.4477 16.5523 21 16 21H13V19.9381C14.4607 19.756 15.7991 19.18 16.9056 18.3199L21.2929 22.7071C21.6834 23.0976 22.3166 23.0976 22.7071 22.7071C23.0976 22.3166 23.0976 21.6834 22.7071 21.2929L18.3199 16.9056C19.3729 15.551 20 13.8487 20 12V10C20 9.44771 19.5523 9 19 9C18.4477 9 18 9.44771 18 10V12C18 13.2958 17.5892 14.4957 16.8907 15.4765L12.1547 10.7403C9.00565 7.59099 5.8566 4.44172 2.70711 1.29289Z" fill="#801ED7"/>
<path d="M16 11.7574V5C16 2.79086 14.2091 1 12 1C10.1694 1 8.62598 2.22974 8.15083 3.90819L16 11.7574Z" fill="#801ED7"/>
</svg>
